icons/d-filled.svg

<svg width="256" height="256" viewBox="0 0 256 256" fill="none" xmlns="http://www.w3.org/2000/svg">
<path d="M196 0H60C26.8629 0 0 26.8629 0 60V196C0 229.137 26.8629 256 60 256H196C229.137 256 256 229.137 256 196V60C256 26.8629 229.137 0 196 0Z" fill="#A40000"/>
<path d="M48.6107 60.7558C46.2268 61.0505 44.3586 62.9538 44.3507 65.2574L44.5012 182.878C44.4915 183.045 44.4918 183.222 44.5018 183.39C44.4745 183.669 44.4748 183.907 44.5028 184.186C44.5026 184.214 44.5027 184.272 44.503 184.3C44.5286 184.413 44.5906 184.531 44.6253 184.641C44.6251 184.669 44.6251 184.67 44.6254 184.698C44.651 184.811 44.6521 184.929 44.6868 185.04C44.6865 185.068 44.6866 185.125 44.6869 185.153C44.742 185.267 44.8052 185.385 44.8702 185.495C44.8699 185.523 44.8699 185.523 44.8702 185.551C44.9547 185.667 45.0798 185.785 45.1754 185.892C45.1751 185.92 45.1751 185.921 45.1754 185.949C45.2305 186.063 45.2937 186.181 45.3587 186.29C45.3584 186.318 45.3585 186.376 45.3588 186.404C45.4746 186.493 45.6007 186.553 45.7248 186.631C45.7245 186.659 45.7246 186.717 45.7249 186.745C45.8114 186.832 45.8755 186.892 45.969 186.972C45.9986 187.001 46.0606 187.059 46.091 187.086C46.1774 187.173 46.2415 187.233 46.335 187.313C46.365 187.314 46.366 187.314 46.396 187.313C46.6188 187.501 46.8719 187.678 47.1279 187.824C47.1579 187.825 47.2198 187.824 47.2498 187.824C47.3672 187.885 47.4933 187.943 47.6156 187.994C47.6456 187.995 47.6466 187.995 47.6766 187.994C47.794 188.055 47.9201 188.113 48.0424 188.164C48.2204 188.202 48.4096 188.202 48.5909 188.221C48.8872 188.274 49.2034 188.331 49.5052 188.333L49.9927 188.332L95.0264 188.153C107.899 188.13 116.521 187.909 121.656 187.26C121.686 187.26 121.747 187.26 121.777 187.26C126.691 186.577 131.896 185.319 137.556 183.481C147.394 180.404 156.119 175.858 163.62 169.786C170.965 163.904 176.656 156.94 180.657 149.105C184.657 141.271 186.673 132.987 186.658 124.4C186.637 112.447 183.022 101.254 175.768 91.1841C168.514 81.1139 158.613 73.4021 146.427 68.2947C134.04 63.0415 117.888 60.6479 97.8493 60.6837L49.2201 60.7549C49.011 60.756 48.8127 60.7307 48.6107 60.7558ZM74.7845 84.9585L95.7474 84.9279C105.544 84.9105 112.514 85.2081 116.468 85.7511C120.475 86.3018 124.865 87.464 129.513 89.2601C134.12 91.016 138.136 93.1664 141.588 95.8433C141.587 95.8712 141.587 95.9291 141.588 95.9571C151.082 103.227 155.557 111.965 155.578 123.535C155.599 135.382 151.274 144.609 142.025 152.348C139.181 154.697 136.017 156.689 132.527 158.337C129.228 159.874 124.925 161.198 119.491 162.339C114.366 163.365 106.586 163.948 96.4579 163.966L74.8856 163.998L74.7845 84.9585Z" fill="#EEEEEC"/>
<path d="M222.212 101.896C222.213 106.019 221.328 110.101 219.608 113.911C217.888 117.72 215.366 121.181 212.187 124.097C209.007 127.013 205.233 129.326 201.078 130.904C196.924 132.482 192.472 133.294 187.975 133.294C183.478 133.294 179.026 132.482 174.871 130.904C170.717 129.326 166.942 127.013 163.763 124.097C160.584 121.181 158.062 117.72 156.342 113.911C154.622 110.101 153.737 106.019 153.737 101.896C153.737 97.7726 154.622 93.6899 156.342 89.8805C158.062 86.0712 160.584 82.6098 163.763 79.6942C166.942 76.7785 170.717 74.4657 174.871 72.8877C179.026 71.3097 183.478 70.4976 187.975 70.4976C192.472 70.4976 196.924 71.3097 201.078 72.8877C205.233 74.4657 209.007 76.7785 212.187 79.6942C215.366 82.6098 217.888 86.0712 219.608 89.8805C221.328 93.6899 222.213 97.7726 222.212 101.896Z" fill="#EEEEEC"/>
<path d="M237.99 67.3982C237.99 68.7229 237.706 70.0348 237.153 71.2588C236.6 72.4827 235.79 73.5949 234.768 74.5318C233.747 75.4686 232.534 76.2117 231.199 76.7188C229.864 77.2258 228.434 77.4867 226.989 77.4867C225.544 77.4867 224.113 77.2258 222.778 76.7188C221.444 76.2117 220.231 75.4686 219.209 74.5318C218.188 73.5949 217.377 72.4827 216.825 71.2588C216.272 70.0348 215.988 68.7229 215.988 67.3982C215.988 66.0734 216.272 64.7616 216.825 63.5376C217.377 62.3136 218.188 61.2014 219.209 60.2646C220.231 59.3277 221.444 58.5846 222.778 58.0776C224.113 57.5705 225.544 57.3096 226.989 57.3096C228.434 57.3096 229.864 57.5705 231.199 58.0776C232.534 58.5846 233.747 59.3277 234.768 60.2646C235.79 61.2014 236.6 62.3136 237.153 63.5376C237.706 64.7616 237.99 66.0734 237.99 67.3982Z" fill="#EEEEEC"/>
</svg>

<svg xmlns="http://www.w3.org/2000/svg" width="256" height="256" fill="none"><path fill="#A40000" d="M196 0H60C26.863 0 0 26.863 0 60v136c0 33.137 26.863 60 60 60h136c33.137 0 60-26.863 60-60V60c0-33.137-26.863-60-60-60"/><path fill="#EEEEEC" d="M48.61 60.756c-2.383.294-4.251 2.198-4.26 4.501l.151 117.621a4 4 0 0 0 0 .512 4 4 0 0 0 .002.796v.114c.026.113.088.231.122.341v.057c.026.113.027.231.062.342v.113c.055.114.118.232.183.342v.056c.085.116.21.234.305.341v.057c.056.114.119.232.184.341v.114c.116.089.242.149.366.227v.114c.086.087.15.147.244.227l.122.114c.086.087.15.147.244.227h.061c.223.188.476.365.732.511h.122c.117.061.243.119.366.17h.06c.118.061.244.119.366.17.178.038.368.038.549.057.296.053.612.11.914.112l.488-.001 45.033-.179c12.873-.023 21.495-.244 26.63-.893h.121c4.914-.683 10.119-1.941 15.779-3.779 9.838-3.077 18.563-7.623 26.064-13.695 7.345-5.882 13.036-12.846 17.037-20.681 4-7.834 6.016-16.118 6.001-24.705-.021-11.953-3.636-23.146-10.89-33.216s-17.155-17.782-29.341-22.89c-12.387-5.252-28.539-7.646-48.578-7.61l-48.629.07c-.209.002-.407-.023-.61.002m26.174 24.203 20.963-.031c9.797-.017 16.767.28 20.721.823 4.007.55 8.397 1.713 13.045 3.51 4.607 1.755 8.623 3.905 12.075 6.582v.114c9.494 7.27 13.969 16.008 13.99 27.578.021 11.847-4.304 21.074-13.553 28.813-2.844 2.349-6.008 4.341-9.498 5.989-3.299 1.537-7.602 2.861-13.036 4.002-5.125 1.026-12.905 1.609-23.033 1.627l-21.572.032z"/><path fill="#EEEEEC" d="M222.212 101.896a29.15 29.15 0 0 1-2.604 12.015c-1.72 3.809-4.242 7.27-7.421 10.186s-6.954 5.229-11.109 6.807a37 37 0 0 1-13.103 2.39c-4.497 0-8.949-.812-13.104-2.39s-7.929-3.891-11.108-6.807-5.701-6.377-7.421-10.186a29.2 29.2 0 0 1-2.605-12.015c0-4.123.885-8.206 2.605-12.016 1.72-3.809 4.242-7.27 7.421-10.186s6.954-5.228 11.108-6.806a37 37 0 0 1 13.104-2.39c4.497 0 8.949.812 13.103 2.39 4.155 1.578 7.929 3.89 11.109 6.806s5.701 6.377 7.421 10.186a29.1 29.1 0 0 1 2.604 12.016m15.778-34.498a9.4 9.4 0 0 1-.837 3.86 10.1 10.1 0 0 1-2.385 3.274 11.1 11.1 0 0 1-3.569 2.187 11.9 11.9 0 0 1-4.21.768c-1.445 0-2.876-.261-4.211-.768a11.1 11.1 0 0 1-3.569-2.187 10.1 10.1 0 0 1-2.384-3.273 9.4 9.4 0 0 1-.837-3.86c0-1.326.284-2.637.837-3.861a10.1 10.1 0 0 1 2.384-3.273 11.1 11.1 0 0 1 3.569-2.187 11.9 11.9 0 0 1 4.211-.768c1.445 0 2.875.26 4.21.768a11.1 11.1 0 0 1 3.569 2.187 10.1 10.1 0 0 1 2.385 3.273 9.4 9.4 0 0 1 .837 3.86"/></svg>
